build/documents/DocumentAddOutline.svg

<svg xmlns="http://www.w3.org/2000/svg" fill="none" viewBox="0 0 24 24" focusable="false"><path d="M0 0H24V24H0z"/><path fill="#74767B" fill-rule="evenodd" d="M4 6C4 4.34315 5.34315 3 7 3L13.4803 3C14.2425 3 14.9761 3.2901 15.5321 3.81139L19.0518 7.11108C19.6568 7.67823 20 8.47047 20 9.2997L20 18C20 19.6569 18.6569 21 17 21L7 21C5.34315 21 4 19.6569 4 18L4 6ZM7 4.3L13.4803 4.3C13.676 4.3 13.8684 4.33375 14.0496 4.39813L14.0496 7.05252C14.0496 8.12948 14.9226 9.00252 15.9996 9.00252L18.6738 9.00251C18.6911 9.09993 18.7 9.19933 18.7 9.2997L18.7 18C18.7 18.9389 17.9389 19.7 17 19.7L7 19.7C6.06112 19.7 5.3 18.9389 5.3 18L5.3 6C5.3 5.06112 6.06112 4.3 7 4.3ZM17.7819 7.70252L15.3496 5.42216L15.3496 7.05252C15.3496 7.41151 15.6406 7.70252 15.9996 7.70252L17.7819 7.70252ZM12.0001 9C12.3591 9 12.6501 9.29102 12.6501 9.65L12.6501 12L15.0001 12C15.3591 12 15.6501 12.291 15.6501 12.65C15.6501 13.009 15.3591 13.3 15.0001 13.3L12.6501 13.3L12.6501 15.65C12.6501 16.009 12.3591 16.3 12.0001 16.3C11.6411 16.3 11.3501 16.009 11.3501 15.65L11.3501 13.3L9.0001 13.3C8.64111 13.3 8.3501 13.009 8.3501 12.65C8.3501 12.291 8.64111 12 9.0001 12L11.3501 12L11.3501 9.65C11.3501 9.29102 11.6411 9 12.0001 9Z"/></svg>

<svg xmlns="http://www.w3.org/2000/svg" fill="none" viewBox="0 0 24 24" focusable="false"><path fill="#74767B" fill-rule="evenodd" d="M4 6c0-1.66 1.34-3 3-3h6.48c.76 0 1.49.29 2.05.81l3.52 3.3c.6.56.95 1.36.95 2.18V18c0 1.65-1.35 3-3 3H7c-1.66 0-3-1.35-3-3zm3-1.7h6.48c.19 0 .38.03.56.09v2.66c0 1.07.88 1.95 1.95 1.95h2.68c.02.09.03.19.03.29V18c0 .93-.77 1.7-1.7 1.7H7c-.94 0-1.7-.77-1.7-1.7V6c0-.94.76-1.7 1.7-1.7m10.78 3.4-2.44-2.28v1.63c0 .36.3.65.65.65zm-5.13 1.94c0-.35-.3-.64-.65-.64-.36 0-.65.29-.65.64V12H9c-.36 0-.65.29-.65.65 0 .35.29.65.65.65h2.35v2.35c0 .35.29.64.65.64.35 0 .65-.29.65-.64V13.3H15c.35 0 .65-.3.65-.65 0-.36-.3-.65-.65-.65h-2.35z"/></svg>
